m/partners/pnr05.svg

<svg width="59" height="28" viewBox="0 0 59 28" fill="none" xmlns="http://www.w3.org/2000/svg">
<path d="M52.9929 10.4889H49.6204V10.4303C50.2069 9.72644 51.0182 8.75867 51.4777 7.98641C51.7221 7.56607 51.8492 7.29235 51.8492 6.85246C51.8492 6.41256 51.4581 5.85536 50.9303 5.85536C50.549 5.85536 50.158 6.02154 49.7377 6.56897V5.61098C50.158 5.26883 50.5588 5.11243 50.9889 5.11243C51.9469 5.11243 52.6116 5.78693 52.6116 6.76448C52.6116 7.74203 52.1424 8.35788 50.9596 9.76555H52.9929V10.4889Z" fill="#2B354E"/>
<path d="M54.8307 6.73512V6.23657H55.2609C55.4368 6.23657 55.5639 6.33432 55.5639 6.48096C55.5639 6.62759 55.427 6.73512 55.2218 6.73512H54.8307ZM54.5668 7.67356H54.8307V6.95995H54.9871C55.2022 6.95995 55.2804 7.03816 55.4857 7.40962L55.6323 7.67356H55.9647L55.7594 7.3412C55.6225 7.12614 55.515 6.9795 55.3782 6.93063C55.4406 6.93064 55.5024 6.91819 55.56 6.894C55.6176 6.86981 55.6698 6.83437 55.7135 6.78976C55.7572 6.74515 55.7915 6.69226 55.8145 6.6342C55.8375 6.57614 55.8487 6.51407 55.8474 6.45163C55.8474 6.27567 55.7105 6.02151 55.3 6.02151H54.5668V7.67356ZM56.5317 6.81332C56.5336 7.06894 56.4596 7.31937 56.319 7.53285C56.1784 7.74633 55.9775 7.91324 55.7419 8.01241C55.5063 8.11157 55.2466 8.13852 54.9956 8.08984C54.7447 8.04116 54.5138 7.91905 54.3324 7.73898C54.151 7.55892 54.0271 7.32902 53.9765 7.07845C53.9259 6.82788 53.9509 6.56793 54.0483 6.33158C54.1456 6.09523 54.311 5.89312 54.5234 5.7509C54.7358 5.60868 54.9857 5.53274 55.2413 5.53274C55.5818 5.53273 55.9086 5.66733 56.1503 5.90721C56.392 6.14709 56.5291 6.47279 56.5317 6.81332ZM56.7858 6.81332C56.7858 6.50784 56.6952 6.20923 56.5255 5.95523C56.3558 5.70124 56.1146 5.50327 55.8324 5.38637C55.5501 5.26947 55.2396 5.23888 54.94 5.29848C54.6404 5.35807 54.3652 5.50517 54.1492 5.72118C53.9332 5.93718 53.7861 6.21239 53.7265 6.512C53.6669 6.81161 53.6974 7.12216 53.8143 7.40438C53.9312 7.68661 54.1292 7.92783 54.3832 8.09754C54.6372 8.26726 54.9358 8.35784 55.2413 8.35784C55.4445 8.35914 55.6459 8.32008 55.8339 8.24292C56.0219 8.16576 56.1927 8.05204 56.3363 7.90836C56.48 7.76468 56.5937 7.59389 56.6709 7.40592C56.7481 7.21794 56.7871 7.01651 56.7858 6.81332Z" fill="#2B354E"/>
<path d="M12.3657 5.35632H9.95117V22.1838H12.3657V5.35632Z" fill="#2B354E"/>
<path d="M24.3214 9.05155C22.8844 7.70254 21.5061 7.30174 20.3721 7.30174C18.8178 7.30174 17.7034 8.12288 17.7034 9.30572C17.7034 12.5316 24.9861 12.4827 24.9861 17.8397C24.9861 20.4791 22.9822 22.4048 20.2744 22.4048C18.4464 22.4048 16.9703 21.9161 15.5626 20.8505V17.7908C16.7943 19.3647 18.3486 20.2347 20.0007 20.2347C21.8775 20.2347 22.7378 19.0421 22.7378 18.1036C22.7378 14.6333 15.4648 14.2326 15.4648 9.62831C15.4648 6.8814 17.4786 5.13159 20.5676 5.13159C21.8482 5.13159 23.1386 5.53239 24.3214 6.31442V9.05155Z" fill="#2B354E"/>
<path d="M41.468 9.11021C39.3956 7.89805 37.6164 7.35062 35.6711 7.35062C31.8196 7.35062 28.9554 10.0975 28.9554 13.7927C28.9554 17.4878 31.7218 20.1858 35.7689 20.1858C37.6653 20.1858 39.7377 19.5211 41.6342 18.2894V20.9287C39.9821 21.789 38.1834 22.4048 35.5441 22.4048C29.2291 22.4048 26.4626 17.5464 26.4626 14.0175C26.4626 8.88537 30.3337 5.13159 35.6907 5.13159C37.4209 5.13159 39.1707 5.55194 41.468 6.50993V9.11021Z" fill="#2B354E"/>
<path d="M1.47559 14.2131C1.47559 19.0911 4.39845 23.4998 9.0809 26.5986C9.46214 26.3347 9.87271 26.0708 10.3126 25.8264C6.78367 22.7862 4.63306 18.7099 4.63306 14.2131C4.63306 9.34496 7.16491 4.95577 11.2315 1.85695C10.8112 1.65167 10.4201 1.44638 10.0487 1.23132C4.79925 4.3497 1.47559 9.01259 1.47559 14.2131Z" fill="#2B354E"/>
<path d="M40.0888 1.24146C39.7174 1.45652 39.3166 1.6618 38.906 1.86708C42.9628 4.96591 45.4849 9.34531 45.4849 14.2135C45.4849 18.7004 43.3343 22.7866 39.8249 25.817C40.2648 26.0614 40.6656 26.3253 41.0566 26.5892C45.7195 23.4904 48.6424 19.0915 48.6424 14.2135C48.6424 9.01295 45.3187 4.35983 40.0888 1.24146Z" fill="#2B354E"/>
</svg>

<svg xmlns="http://www.w3.org/2000/svg" fill="none" viewBox="0 0 59 28"><path fill="#2B354E" d="M52.993 10.489H49.62v-.059c.587-.704 1.398-1.671 1.858-2.444.244-.42.371-.694.371-1.134 0-.44-.39-.997-.919-.997-.381 0-.772.167-1.192.714v-.958c.42-.342.82-.499 1.25-.499.959 0 1.624.675 1.624 1.652 0 .978-.47 1.594-1.652 3.002h2.033v.723Zm1.837-3.754v-.498h.43c.177 0 .304.097.304.244s-.137.254-.342.254h-.391Zm-.263.939h.264V6.96h.156c.215 0 .293.078.499.45l.146.264h.333l-.206-.333c-.136-.215-.244-.362-.38-.41a.47.47 0 0 0 .468-.48c0-.175-.136-.43-.547-.43h-.733v1.653Zm1.965-.86a1.29 1.29 0 1 1-2.582.019 1.29 1.29 0 0 1 2.582-.02Zm.254 0a1.545 1.545 0 1 0-1.545 1.544 1.535 1.535 0 0 0 1.545-1.545Zm-44.42-1.458H9.95v16.828h2.415V5.356Zm11.955 3.696c-1.437-1.35-2.815-1.75-3.949-1.75-1.554 0-2.669.82-2.669 2.004 0 3.226 7.283 3.177 7.283 8.534 0 2.64-2.004 4.565-4.712 4.565-1.828 0-3.304-.489-4.711-1.555v-3.06c1.231 1.575 2.786 2.445 4.438 2.445 1.877 0 2.737-1.193 2.737-2.131 0-3.47-7.273-3.871-7.273-8.476 0-2.747 2.014-4.496 5.103-4.496 1.28 0 2.57.4 3.753 1.182v2.738Zm17.147.058c-2.072-1.212-3.852-1.76-5.797-1.76-3.851 0-6.716 2.748-6.716 6.443 0 3.695 2.767 6.393 6.814 6.393 1.896 0 3.969-.665 5.865-1.897v2.64c-1.652.86-3.45 1.476-6.09 1.476-6.315 0-9.081-4.859-9.081-8.388 0-5.132 3.87-8.885 9.228-8.885 1.73 0 3.48.42 5.777 1.378v2.6Z"/><path fill="#2B354E" d="M1.476 14.213c0 4.878 2.922 9.287 7.605 12.386a14.78 14.78 0 0 1 1.232-.773c-3.53-3.04-5.68-7.116-5.68-11.613 0-4.868 2.532-9.257 6.599-12.356-.42-.205-.812-.41-1.183-.626-5.25 3.119-8.573 7.782-8.573 12.982ZM40.089 1.241c-.372.216-.772.42-1.183.626 4.057 3.099 6.579 7.478 6.579 12.347 0 4.486-2.15 8.573-5.66 11.603.44.244.84.508 1.232.772 4.662-3.099 7.585-7.497 7.585-12.375 0-5.201-3.323-9.854-8.553-12.973Z"/></svg>
